X: 30726
T: Orkney/Norway Walrus, The
R: waltz
M: 3/4
K: Amajor
c2|c3 d e2|c2 A2 F2|E3 F GE|A4 c2|c3 d e2|d3 c d2|B3 c de|B4 c2|
c3 d e2|c2 A2 F2|E3 F GE|d4 f2|e3 c Ac|d3 B GB|A6 -|A4 f2|
f2 a2 aa|d2 a2 f2|e3 d ce|A4 c2|d4 d2|B2 f2 e2|c4 e2|a4 f2|
f2 a2 a2|b2 a2 g2|f3 a g2|f3 e c2|d3 d d2|B2 f2 e2|a4 d2|c6||

